X:1
T:Gastorius, 87.87.877
T:Gastorius, 87.87.877
T:Severus Gastorius, 1675
T:Public Domain Courtesy of the Cyber Hymnal™
C:Severus Gastorius, 1675
Z:Public Domain
Z:Courtesy of the Cyber Hymnal™
%%score ( 1 2 ) ( 3 4 )
L:1/8
Q:1/4=112
M:4/4
K:G
V:1 treble 
V:2 treble 
V:3 bass 
V:4 bass 
V:1
 [B,D]2 | [EG]2 [FA]2 [GB]2 [Ge]2 | [Fd]2 c2 !fermata![GB]2 [Ge]2 | d2 z F [GB]2 [GB]2 | %4
 A4 !fermata!G2 [B,D]2 | [EG]2 [FA]2 [GB]2 [Ge]2 | [Fd]2 c2 !fermata![GB]2 [Ge]2 | %7
 d2 z F [GB]2 [GB]2 | A4 !fermata![Gd]2 x2 | [Ge]2 [Ge]2 !fermata![FA]2 [FA]2 | %10
 d2 d2 !fermata![EG]2 B2 | [EA]2 G2 [DF]2 [DF]2 | E4 !fermata!D2 [Gd]2 | [Ge]2 [Fd]2 c2 [DB]2 | %14
 A4 [B,G]2 |] %15
V:2
 x2 | x8 | x2 GA x4 | G3 c2 x3 | G2 F2 x4 | x8 | x2 GA x4 | G3 c2 x3 | G2 F2 G2 x2 | x8 | %10
 GF G=F x GF x | x2 DE x4 | D2 ^C2 x4 | x4 ED x2 | E2 DC x2 |] %15
V:3
 G,2 | [E,B,]2 [D,D]2 [G,D]2 [C,C]2 | [D,A,]2 [E,E][F,D] !fermata![G,D]2 [C,C]2 | %3
 [G,B,]2 [A,C]2 [B,D]2 [G,D]2 | [C,E]2 (DC) !fermata![G,B,]2 G,2 | [E,B,]2 [D,D]2 [G,D]2 [C,C]2 | %6
 [D,A,]2 [E,E][F,D] !fermata![G,D]2 [C,C]2 | [G,B,]2 [A,C]2 [B,D]2 [G,D]2 | %8
 [C,E]2 (DC) !fermata![G,B,]2 [G,B,]2 | CB, [^C,A,]2 !fermata![D,D]2 D2 | %10
 D2 [B,,D]2 !fermata![C,C]2 [G,,D]2 | [A,,^C]2 [B,,B,][^C,A,] [D,A,]2 [B,,B,]2 | %12
 [G,,B,]2 (A,G,) [D,F,]2 [B,,D]2 | (CB,) [D,A,]2 [E,G,][F,A,] G,2 | [C,G,]2 [D,F,]2 [G,,G,]2 |] %15
V:4
 x2 | x8 | x8 | x8 | x2 D,2 x4 | x8 | x8 | x8 | x2 D,2 x4 | ^C,2 x3 (D,=C,) x | B,,A,, x6 | x8 | %12
 x2 A,,2 x4 | C,2 x6 | x6 |] %15

